X: 70
T:Little Birds of the Mountain
M:2/4
L:1/8
Q:160
S:Michael Raven (Hynde Horn)
A:Wales
Z:brian_martin12345@yahoo.com
K:G
D GB|c3A|FG3|zB GB|d3B|ee3|
ze ge|dB A/B/G|E4|zD GB|B3A/B/|AG3||

